svg/logo/git_lab_line.svg

<?xml version="1.0" encoding="UTF-8"?>
<svg width="24px" height="24px" viewBox="0 0 24 24" version="1.1" xmlns="http://www.w3.org/2000/svg" xmlns:xlink="http://www.w3.org/1999/xlink">
    <title>git_lab_line</title>
    <g id="页面-1" stroke="none" stroke-width="1" fill="none" fill-rule="evenodd">
        <g id="Logo" transform="translate(-528.000000, -96.000000)">
            <g id="git_lab_line" transform="translate(528.000000, 96.000000)">
                 <path d="M24,0 L24,24 L0,24 L0,0 L24,0 Z M12.5934901,23.257841 L12.5819402,23.2595131 L12.5108777,23.2950439 L12.4918791,23.2987469 L12.4918791,23.2987469 L12.4767152,23.2950439 L12.4056548,23.2595131 C12.3958229,23.2563662 12.3870493,23.2590235 12.3821421,23.2649074 L12.3780323,23.275831 L12.360941,23.7031097 L12.3658947,23.7234994 L12.3769048,23.7357139 L12.4804777,23.8096931 L12.4953491,23.8136134 L12.4953491,23.8136134 L12.5071152,23.8096931 L12.6106902,23.7357139 L12.6232938,23.7196733 L12.6232938,23.7196733 L12.6266527,23.7031097 L12.609561,23.275831 C12.6075724,23.2657013 12.6010112,23.2592993 12.5934901,23.257841 L12.5934901,23.257841 Z M12.8583906,23.1452862 L12.8445485,23.1473072 L12.6598443,23.2396597 L12.6498822,23.2499052 L12.6498822,23.2499052 L12.6471943,23.2611114 L12.6650943,23.6906389 L12.6699349,23.7034178 L12.6699349,23.7034178 L12.678386,23.7104931 L12.8793402,23.8032389 C12.8914285,23.8068999 12.9022333,23.8029875 12.9078286,23.7952264 L12.9118235,23.7811639 L12.8776777,23.1665331 C12.8752882,23.1545897 12.8674102,23.1470016 12.8583906,23.1452862 L12.8583906,23.1452862 Z M12.1430473,23.1473072 C12.1332178,23.1423925 12.1221763,23.1452606 12.1156365,23.1525954 L12.1099173,23.1665331 L12.0757714,23.7811639 C12.0751323,23.7926639 12.0828099,23.8018602 12.0926481,23.8045676 L12.108256,23.8032389 L12.3092106,23.7104931 L12.3186497,23.7024347 L12.3186497,23.7024347 L12.3225043,23.6906389 L12.340401,23.2611114 L12.337245,23.2485176 L12.337245,23.2485176 L12.3277531,23.2396597 L12.1430473,23.1473072 Z" id="MingCute" fill-rule="nonzero"></path>
                <path d="M6.02935,2.00043 C6.44881,2.01276 6.81595,2.28567 6.94866,2.68378 L8.72073,7.99999586 L15.2792,7.99999586 L17.0513,2.68378 C17.184,2.28567 17.5511,2.01276 17.9706,2.00043 C18.3901,1.98811 18.7726,2.23898 18.9284,2.62861 L21.8263,9.87336 C22.6445,11.9187 22.0276,14.2585 20.3074,15.6347 L13.2494,21.2811 C12.5189,21.8655 11.481,21.8655 10.7506,21.2811 L3.69251,15.6347 C1.97233,14.2585 1.35546,11.9187 2.1736,9.87336 L5.0715,2.62861 C5.22735,2.23898 5.60988,1.98811 6.02935,2.00043 Z M5.91457,5.90608 L4.03055,10.6161 C3.53967,11.8433 3.90979,13.2472 4.9419,14.0729 L12,19.7194 L19.058,14.0729 C20.0902,13.2472 20.4603,11.8433 19.9694,10.6161 L18.0854,5.90608 L16.9487,9.31623 C16.8125,9.72457 16.4304,10 16,10 L7.99997,10 C7.56954,10 7.1874,9.72457 7.05129,9.31623 L5.91457,5.90608 Z" id="形状" fill="#09244B"></path>
            </g>
        </g>
    </g>
</svg>

<svg xmlns="http://www.w3.org/2000/svg" width="24" height="24"><g fill="none" fill-rule="evenodd"><path d="M24 0v24H0V0h24ZM12.593 23.258l-.011.002-.071.035-.02.004-.014-.004-.071-.035c-.01-.004-.019-.001-.024.005l-.004.01-.017.428.005.02.01.013.104.074.015.004.012-.004.104-.074.012-.016.004-.017-.017-.427c-.002-.01-.009-.017-.017-.018Zm.265-.113-.013.002-.185.093-.01.01-.003.011.018.43.005.012.008.007.201.093c.012.004.023 0 .029-.008l.004-.014-.034-.614c-.003-.012-.01-.02-.02-.022Zm-.715.002a.023.023 0 0 0-.027.006l-.006.014-.034.614c0 .012.007.02.017.024l.015-.002.201-.093.01-.008.004-.011.017-.43-.003-.012-.01-.01-.184-.092Z"/><path fill="#09244B" d="M6.03 2a1 1 0 0 1 .919.684L8.72 8h6.558l1.772-5.316a1 1 0 0 1 1.877-.055l2.898 7.244a5 5 0 0 1-1.519 5.762L13.25 21.28a2 2 0 0 1-2.498 0l-7.058-5.646a5 5 0 0 1-1.52-5.762L5.073 2.63A1 1 0 0 1 6.029 2Zm-.115 3.906-1.884 4.71a3 3 0 0 0 .91 3.457L12 19.719l7.058-5.646a3 3 0 0 0 .911-3.457l-1.884-4.71-1.136 3.41A1 1 0 0 1 16 10H8a1 1 0 0 1-.949-.684l-1.136-3.41Z"/></g></svg>
